X: 91
T:Ploughman,The. JC.091
M:C|
L:1/8
Q:180
S:John Clare,Poet,Helpston. (1793-1864)
R:Reel
O:England
A:Northamptonshire
N:MR. Bars 1,3,7. following the dotted qu, the qu in the MS is given as
N:semi-qu.
Z:vmp.P. Headford
K:D
D|FA-AF G>FED|FA-AA dA=c2|B>ABd ceEG|FAGBA2D:|!
|:c|dABF G>FEG|FABcd2Ac|d>BAF G>FEF|FABdA2D:|]
W:MS includes Dance Instructions. |
